X: 2077
T: Trilisestile
O: Romania
M: 4/4
L: 1/8
K: A
|: "A"ABcd ef=ge | "D"a=gfe f3e | "E7"dcBA BcdB |1 "A"ABcd e^de2 :|2 "A"AEFG A2z2 ||
|: "A"g-aae g-aae | "E7"dcBd "A"~c3A | g-aae "E7"dcBd | "A"~c3A BAGA |
|  "A"g-aae g-aae | "E7"dcde f3e | "E7"dcBA BcdB | "A"AEFG A2z2 :|
|: "A"EAGA BAGA | BAGA ~c3A | "E7"dcBA BcdB |1 "A"AGAB cde2 :|2 "A"AEFG A2z2 :| "Coda A".A2.E2 .A2 |]
